X:84
T: Verjen meg az Istaen téged
O: Onest (Bákó), 1929
Q:1/4=176
M:2/4
L:1/4
K:F
c/c/B/B/ | A/A/G/B/ | 
A/A/G/F/ | G/G/F | Cz | 
F/G/A | c2 | Ac | G2 | F z | 

